static const char *start_xpm[] = {
"100 100 3 1",
"  c None",
". c #000000",
"X c #FF0000",
"                                                                                                    ",
"                                                                                                    ",
"                                                                                                    ",
"                                                                                                    ",
"                                                                                                    ",
"                                                                                                    ",
"                                                                                                    ",
"                                                                                                    ",
"                                                                                                    ",
"                                                                                                    ",
"                                                                                                    ",
"                                                                                                    ",
"                                                                                                    ",
"                                                                                                    ",
"                                                                                                    ",
"                                                                                                    ",
"                                                                                                    ",
"                                                                                                    ",
"                                                                                                    ",
"                                                                                                    ",
"                                                                                                    ",
"                                                                                                    ",
"                                                                                                    ",
"                                                                                                    ",
"                                                                                                    ",
"         ...............................................................................            ",
"         ...............................................................................            ",
"         ...............................................................................            ",
"         ...XXXXXXXXXXXXXXXXXXXXXXXXXXXXXXXXXXXXXXXXXXXXXXXXXXXXXXXXXXXXXXXXXXXXXXXXX...            ",
"         ...XXXXXXXXXXXXXXXXXXXXXXXXXXXXXXXXXXXXXXXXXXXXXXXXXXXXXXXXXXXXXXXXXXXXXXXXX...            ",
"         ...XXXXXXXXXXXXXXXXXXXXXXXXXXXXXXXXXXXXXXXXXXXXXXXXXXXXXXXXXXXXXXXXXXXXXXXXX...            ",
"         ...XXXXXXXXXXXXXXXXXXXXXXXXXXXXXXXXXXXXXXXXXXXXXXXXXXXXXXXXXXXXXXXXXXXXXXXXX...            ",
"         ...XXXXXXXXXXXXXXXXXXXXXXXXXXXXXXXXXXXXXXXXXXXXXXXXXXXXXXXXXXXXXXXXXXXXXXXXX...            ",
"         ...XXXXXXXXXXXXXXXXXXXXXXXXXXXXXXXXXXXXXXXXXXXXXXXXXXXXXXXXXXXXXXXXXXXXXXXXX...            ",
"         ...XXXXXXXXX.....XXXXX..........XXXXX.....XXXXXX.......XXXX..........XXXXXXX...            ",
"         ...XXXXXXXX.......XXX............XXX.......XXXX.........XX............XXXXXX...            ",
"         ...XXXXXXX.........XX............XX.........XXX..........X............XXXXXX...            ",
"         ...XXXXXX...........XX..........XX...........XX..........XX..........XXXXXXX...            ",
"         ...XXXXXX....XXX....XXXXX....XXXXX....XXX....XX....XX....XXXXX....XXXXXXXXXX...            ",
"         ...XXXXXX....XXXXXXXXXXXX....XXXXX....XXX....XX....XX....XXXXX....XXXXXXXXXX...            ",
"         ...XXXXXX....XXXXXXXXXXXX....XXXXX....XXX....XX....XX....XXXXX....XXXXXXXXXX...            ",
"         ...XXXXXXX.......XXXXXXXX....XXXXX....XXX....XX..........XXXXX....XXXXXXXXXX...            ",
"         ...XXXXXXXX.......XXXXXXX....XXXXX....XXX....XX.........XXXXXX....XXXXXXXXXX...            ",
"         ...XXXXXXXXX.......XXXXXX....XXXXX....XXX....XX........XXXXXXX....XXXXXXXXXX...            ",
"         ...XXXXXXXXXXXXX....XXXXX....XXXXX...........XX........XXXXXXX....XXXXXXXXXX...            ",
"         ...XXXXXXXXXXXXX....XXXXX....XXXXX...........XX....X....XXXXXX....XXXXXXXXXX...            ",
"         ...XXXXXXXXXXXXX....XXXXX....XXXXX...........XX....X....XXXXXX....XXXXXXXXXX...            ",
"         ...XXXXXXXXXXXXX....XXXXX....XXXXX....XXX....XX....XX...XXXXXX....XXXXXXXXXX...            ",
"         ...XXXXXX....XXX....XXXXX....XXXXX....XXX....XX....XX....XXXXX....XXXXXXXXXX...            ",
"         ...XXXXXX...........XXXXX....XXXXX....XXX....XX....XX....XXXXX....XXXXXXXXXX...            ",
"         ...XXXXXXX.........XXXXXX....XXXXX....XXX....XX....XXX....XXXX....XXXXXXXXXX...            ",
"         ...XXXXXXXX.......XXXXXXX....XXXXX....XXX....XX....XXX....XXXX....XXXXXXXXXX...            ",
"         ...XXXXXXXXX.....XXXXXXXXX..XXXXXXX..XXXXX..XXXX..XXXXX...XXXXX..XXXXXXXXXXX...            ",
"         ...XXXXXXXXXXXXXXXXXXXXXXXXXXXXXXXXXXXXXXXXXXXXXXXXXXXXXXXXXXXXXXXXXXXXXXXXX...            ",
"         ...XXXXXXXXXXXXXXXXXXXXXXXXXXXXXXXXXXXXXXXXXXXXXXXXXXXXXXXXXXXXXXXXXXXXXXXXX...            ",
"         ...XXXXXXXXXXXXXXXXXXXXXXXXXXXXXXXXXXXXXXXXXXXXXXXXXXXXXXXXXXXXXXXXXXXXXXXXX...            ",
"         ...XXXXXXXXXXXXXXXXXXXXXXXXXXXXXXXXXXXXXXXXXXXXXXXXXXXXXXXXXXXXXXXXXXXXXXXXX...            ",
"         ...XXXXXXXXXXXXXXXXXXXXXXXXXXXXXXXXXXXXXXXXXXXXXXXXXXXXXXXXXXXXXXXXXXXXXXXXX...            ",
"         ...XXXXXXXXXXXXXXXXXXXXXXXXXXXXXXXXXXXXXXXXXXXXXXXXXXXXXXXXXXXXXXXXXXXXXXXXX...            ",
"         ...............................................................................            ",
"         ...............................................................................            ",
"         ...............................................................................            ",
"                                                                                                    ",
"                                                                                                    ",
"                                                                                                    ",
"                                                                                                    ",
"                                                                                                    ",
"                                                                                                    ",
"                                                                                                    ",
"                                                                                                    ",
"                                                                                                    ",
"                                                                                                    ",
"                                                                                                    ",
"                                                                                                    ",
"                                                                                                    ",
"                                                                                                    ",
"                                                                                                    ",
"                                                                                                    ",
"                                                                                                    ",
"                                                                                                    ",
"                                                                                                    ",
"                                                                                                    ",
"                                                                                                    ",
"                                                                                                    ",
"                                                                                                    ",
"                                                                                                    ",
"                                                                                                    ",
"                                                                                                    ",
"                                                                                                    ",
"                                                                                                    ",
"                                                                                                    ",
"                                                                                                    ",
"                                                                                                    ",
"                                                                                                    ",
"                                                                                                    ",
"                                                                                                    ",
"                                                                                                    ",
"                                                                                                    ",
"                                                                                                    ",
"                                                                                                    "
};
